packages/icons/src/list-bullet.svg

<svg width="24" height="24" viewBox="0 0 24 24" fill="none" xmlns="http://www.w3.org/2000/svg">
<path d="M19.5 4.5C18.6716 4.5 18 5.17157 18 6C18 6.82843 18.6716 7.5 19.5 7.5C20.3284 7.5 21 6.82843 21 6C21 5.17157 20.3284 4.5 19.5 4.5Z" fill="black"/>
<path d="M15.5 5H3V7H15.5V5Z" fill="black"/>
<path d="M18 12C18 11.1716 18.6716 10.5 19.5 10.5C20.3284 10.5 21 11.1716 21 12C21 12.8284 20.3284 13.5 19.5 13.5C18.6716 13.5 18 12.8284 18 12Z" fill="black"/>
<path d="M19.5 16.5C18.6716 16.5 18 17.1716 18 18C18 18.8284 18.6716 19.5 19.5 19.5C20.3284 19.5 21 18.8284 21 18C21 17.1716 20.3284 16.5 19.5 16.5Z" fill="black"/>
<path d="M3 11H15.5V13H3V11Z" fill="black"/>
<path d="M15.5 17H3V19H15.5V17Z" fill="black"/>
</svg>

<svg xmlns="http://www.w3.org/2000/svg" width="24" height="24" fill="none" viewBox="0 0 24 24">
  <path fill="#000" d="M19.5 4.5a1.5 1.5 0 1 0 0 3 1.5 1.5 0 0 0 0-3Zm-4 .5H3v2h12.5V5Zm2.5 7a1.5 1.5 0 1 1 3 0 1.5 1.5 0 0 1-3 0Zm1.5 4.5a1.5 1.5 0 1 0 0 3 1.5 1.5 0 0 0 0-3ZM3 11h12.5v2H3v-2Zm12.5 6H3v2h12.5v-2Z"/>
</svg>
